X: 16809
T: Harry Cotter's Schottische
R: barndance
M: 4/4
K: Dmajor
|:F>G|A>f e>d c>e (3dcB|A2F2 F>E D>F|A2G2 G>F E>G|B2A2 A2 F>G|
A>f e>d c>e (3dcB|A2F2 F>E D>F|A>d c>B A>G F>E|D2(3DFA d2:|
|:A2|F2A2d2e2|d2 c>=c ^c2 E>F|G2B2B2c2|B2 A>^G A>=G F>G|
A2d2d2e2|d2 c>=c ^c2c2|E2 c>B G2 c>B|(3AGF D2 D2:|

